X:90
T:Cuckoo's Nest. Le4.090
B:L.Leadley MS#4 c1850
Z:Village Music Project, 2016 Steve Mansfield
M:C
L:1/8
Q:2/4=75
K:G
dc | BABG babg | fdcB cedc | B2AG FGAB | c2A2 A2dc |
BABG babg | fdcB cedc | B2AG FGAB | B2G2 G2 :|
|: d2 | g3a gbag | f2d2 d2e2 | f3g fagf | e2c2 c2dc |
BABG babg | fdcB cedc | {c}B2AG FGAc | B2G2 G2 :|
|: Bc | dBGB dBGB | dcBA G2AB | cAFA cAFA | cBAG F2dc |
BABG babg | fecB cedc | {c}B2AG FGAc | B2G2 G2 :|

